icons/file-directory-symlink-16.svg

<svg width="16" height="16" viewBox="0 0 16 16" fill="none" xmlns="http://www.w3.org/2000/svg">
<path d="M0 2.75C0 1.7835 0.783501 1 1.75 1H5C5.55083 1 6.0695 1.25934 6.4 1.7L7.3 2.9C7.34721 2.96295 7.42131 3 7.5 3H14.25C15.2165 3 16 3.7835 16 4.75V13.25C16 14.2165 15.2165 15 14.25 15H5.375C4.96079 15 4.625 14.6642 4.625 14.25C4.625 13.8358 4.96079 13.5 5.375 13.5H14.25C14.3881 13.5 14.5 13.3881 14.5 13.25V4.75C14.5 4.61193 14.3881 4.5 14.25 4.5H7.5C6.94917 4.5 6.4305 4.24066 6.1 3.8L5.2 2.6C5.15279 2.53705 5.07869 2.5 5 2.5H1.75C1.61193 2.5 1.5 2.61193 1.5 2.75V5.75C1.5 6.16421 1.16421 6.5 0.75 6.5C0.335786 6.5 0 6.16421 0 5.75V2.75Z" fill="black"/>
<path d="M1.5 12.2373C1.5 10.9899 2.51488 9.98073 3.76245 9.98763L4 9.98894V11.9267C4 12.145 4.26015 12.2584 4.42012 12.1099L7.30271 9.43317C7.40923 9.33426 7.40923 9.16568 7.30271 9.06677L4.42011 6.3901C4.26015 6.24156 4 6.35501 4 6.5733V8.48892L3.77075 8.48765C1.69169 8.47615 0 10.1581 0 12.2373V13.25C0 13.6642 0.335786 14 0.75 14C1.16421 14 1.5 13.6642 1.5 13.25V12.2373Z" fill="black"/>
</svg>

<svg xmlns="http://www.w3.org/2000/svg" width="16" height="16" viewBox="0 0 16 16"><path d="M0 2.75C0 1.784.784 1 1.75 1H5a1.75 1.75 0 0 1 1.4.7l.9 1.2a.25.25 0 0 0 .2.1h6.75c.966 0 1.75.784 1.75 1.75v8.5A1.75 1.75 0 0 1 14.25 15H5.375a.75.75 0 0 1 0-1.5h8.875a.25.25 0 0 0 .25-.25v-8.5a.25.25 0 0 0-.25-.25H7.5a1.75 1.75 0 0 1-1.4-.7l-.9-1.2a.25.25 0 0 0-.2-.1H1.75a.25.25 0 0 0-.25.25v3a.75.75 0 0 1-1.5 0v-3Z"/><path d="M1.5 12.237a2.25 2.25 0 0 1 2.262-2.249L4 9.989v1.938c0 .218.26.331.42.183l2.883-2.677a.25.25 0 0 0 0-.366L4.42 6.39a.25.25 0 0 0-.42.183v1.916l-.229-.001A3.75 3.75 0 0 0 0 12.237v1.013a.75.75 0 0 0 1.5 0v-1.013Z"/></svg>
